!!!COM: Lassus, Rudolphus
!!!CDT: 1563-1623
!!!OPR: Geistliche Psalmen mit dreyen Stimmen
!!!OTL: Quare fremuerunt gentes
!!!OTL@DE: Warumb empören sich die Haiden
!!!LIB: Ulenberg, Caspar
!!!LIB-CDT: 1548/12/24-1617/02/16
!!!AGN: Psalm, Tricinium
!!!voices: 3
**kern	**text	**kern	**text	**kern	**text
*staff3	*staff3	*staff2	*staff2	*staff1	*staff1
*Ivox	*	*Ivox	*	*Ivox	*
*I"Bassus	*	*I"Tenor	*	*I"Cantus	*
*clefC3	*	*clefC2	*	*clefG2	*
*M2/1	*	*M2/1	*	*M2/1	*
*k[]	*	*k[]	*	*k[]	*
*met(C|)	*	*met(C|)	*	*met(C|)	*
=1	=1	=1	=1	=1	=1
0r	.	1d	War-	1r	.
.	.	2d	um	1dd	War-
.	.	2d	em-	.	.
=2	=2	=2	=2	=2	=2
0r	.	2c	pö-	2a	um
.	.	2d	ren	2a	em-
.	.	2e	sich	2g	pö-
.	.	2f	die	2a	ren
=3	=3	=3	=3	=3	=3
0r	.	1e	Hai-	2b	sich
.	.	.	.	2cc	die
.	.	2.d	den	2b	Hai-
.	.	.	.	2a	den
.	.	4e	.	.	.
=4	=4	=4	=4	=4	=4
1d	War-	4f	.	2r	.
.	.	4g	.	.	.
.	.	4a	.	2ff	war-
.	.	4b	.	.	.
2d	rum	2a	.	2ff	rum
2d	em-	4r	.	2ff	em
.	.	4a	war-	.	.
=5	=5	=5	=5	=5	=5
2c	pö-	2a	um	2ee	pö-
2d	ren	2a	em-	2ff	ren
2e	sich	2g	pö-	2.cc	sich
2f	die	2a	ren	.	.
.	.	.	.	8bL	.
.	.	.	.	8aJ	.
=6	=6	=6	=6	=6	=6
1e	Hai-	2b	sich	1g	.
.	.	2cc	die	.	.
2d	den,	1b	Hai-	2r	.
2g	die	.	.	2.dd	die
=7	=7	=7	=7	=7	=7
4f	Hai-	1a	den	.	.
4e	.	.	.	4cc	.
4d	.	.	.	2ff	.
4e	.	.	.	.	.
2f	.	2r	.	2.cc	Hai
2a	den	2f	und	.	.
.	.	.	.	8bL	.
.	.	.	.	8aJ	.
=8	=8	=8	=8	=8	=8
2r	.	2e	wü-	2g	.
2f	und	2d	ten	2a	den
2e	wü-	2c	so	2r	.
2d	ten	2f	von	2a	und
=9	=9	=9	=9	=9	=9
2c	so	2e	al-	2a	wü-
2B	von	2d	len	2g	ten
2A	al-	1e	Sei-	2cc	so
2c	len	.	.	2g	von
=10	=10	=10	=10	=10	=10
1B	Sei-	1d	ten,	4g	al-
.	.	.	.	4f#	len
.	.	.	.	2g	Sei-
2A	ten,	1r	.	2cc	ten,
1d	find	.	.	2a	sind
=11	=11	=11	=11	=11	=11
.	.	1r	.	2b	um-
2e	um-	.	.	2.cc	ge-
1f	.	2r	.	.	.
.	.	.	.	4b	.
.	.	2d	sind	2a	.
=12	=12	=12	=12	=12	=12
2c	stü-	2e	un-	2g	stü-
2F	men	2f	ge-	2a	men-
2c	Grim-	2e	stü-	2g	Grim-
2d	mes	2d	men	2f	mes
=13	=13	=13	=13	=13	=13
1A	voll,	1c	Grim-	2e	voll,
.	.	.	.	2ee	sind
2r	.	1B	mes	2dd	un-
2d	sind	.	.	2b	ge-
=14	=14	=14	=14	=14	=14
2e	un-	1A	voll?	1cc	stü-
2f	ge-	.	.	.	.
2e	stü-	1r	.	2g	men
2d	men	.	.	1a	Grim-
=15	=15	=15	=15	=15	=15
2c	Grim-	1r	.	.	.
2B	mes	.	.	2g	mes
2A	voll?	1e	Die	1cc	voll?
2c	Die	.	.	.	.
=16	=16	=16	=16	=16	=16
2d	Leut	2f	Leut	2r	.
2e	gehn	2g	gehn	2b	Die
2A	um	2a	um	2cc	Leut
2f	mit	2a	mit	2dd	gehn
=17	=17	=17	=17	=17	=17
2c	lo-	2g	lo-	2ee	um
2d	sen	2f	sen	2a	mit
2e	Rän-	1g	Rän-	4cc	lo-
.	.	.	.	4b	.
2c	ken	.	.	2ee	.
=18	=18	=18	=18	=18	=18
2r	.	1f	ken,	3.aL	sen
2a	tun	.	.	6b	.
.	.	.	.	3cc	.
2g	ei-	1r	.	1dd	Rän-
2f	tel	.	.	.	.
=19	=19	=19	=19	=19	=19
2e	Ding,	2r	.	2g	ken,
2A	tun	2a	tun	2cc	tun
2e	ei-	2g	ei-	2b	ei-
2f	tel	2f	tel	2a	tel
=20	=20	=20	=20	=20	=20
2c	Ding	2.e	Ding	2g	Ding
2A	mit	.	.	2cc	mit
.	.	4c	mit	.	.
4G	Lift	2d	Lift	2b	Lift
4G	er-	.	.	.	.
2A	den	2c	er-	4e	er-
.	.	.	.	2a	den
=21	=21	=21	=21	=21	=21
1E	ken,	1B	den-	.	.
.	.	.	.	8g#	.
.	.	.	.	8f#	.
.	.	.	.	2g#	.
2r	.	1A	ken,	2cc	ken,
2F	das	.	.	2a	das
=22	=22	=22	=22	=22	=22
2A	ihn	1r	.	2cc	ihn
2B	doch	.	.	2dd	doch
2c	nit	1A	das	4ee	nit
.	.	.	.	4dd	.
2e	ge-	.	.	4cc	.
.	.	.	.	4dd	.
=23	=23	=23	=23	=23	=23
2A	lin	2c	ihn	2ee	.
2B-	gen	2d	doch	2dd	ge-
2A	soll,	2e	nit	2cc	lin-
2a	ge-	2d	ge-	2.ff	.
=24	=24	=24	=24	=24	=24
1d	lin-	1f	lin-	.	.
.	.	.	.	4ee	.
.	.	.	.	2.dd	.
1A	gen	1e	gen	.	.
.	.	.	.	8cc#	.
.	.	.	.	8b	.
.	.	.	.	2cc#	gen
=25	=25	=25	=25	=25	=25
0dl	soll.	0dl	soll.	0ddl	soll.
==	==	==	==	==	==
*-	*-	*-	*-	*-	*-
!!!RDF**kern: l=long note in original notation
!!!RDF**kern: i=editorial accidental
!!!ENC: Wolfgang Drescher
!!!END: 2022/02/28
!!!EED: Wolfgang Drescher
!!!EEV: 2022/02/28
